X: 1
T:My Old Kentucky Home
S:Comando list, 7/97, Peter Freitag
O:American
M:4/4
Q:126
K:D
DE F2 E2 D2| EF G>FGB A2| GF E2 D2 D2| CD E2 DE F2|\
E2 D2 EF G>F|GB A2 D2 E2| F2 GF ED DC| D3 A2 F G2| BA F2 E D2 E| D2 B,2 D4|
